src/assets/images/cb/logosc/color_java.svg

<svg id="Layer_1" xmlns="http://www.w3.org/2000/svg" viewBox="-5 97 600 600"><style>.st0{fill:#086db5}.st1{fill:#e11f21}</style><path class="st0" d="M205.6 526.2s-23.9 11.3 17 15.2c49.4 4.7 74.6 4 129.1-4.5 0 0 14.3 7.3 34.3 13.8-122.1 42.9-276.3-2.5-180.4-24.5m-14.9-55.9S164 486.6 204.8 490c52.8 4.4 94.4 4.8 166.5-6.6 0 0 9.9 8.3 25.7 12.8-147.5 35.4-311.9 2.9-206.3-25.9"/><path class="st1" d="M316.4 375.4c30.1 28.4-7.9 53.9-7.9 53.9s76.3-32.4 41.3-72.7C317 318.8 292 300 427.9 235.4c0 0-213.4 43.7-111.5 140"/><path class="st0" d="M477.8 567.7s17.6 11.8-19.5 21.1c-70.4 17.5-293.2 22.7-355.1.7-22.2-8 19.5-19 32.6-21.2 13.6-2.5 21.5-1.9 21.5-1.9-24.7-14.3-160 28.1-68.7 40.2 248.9 32.8 453.8-15.1 389.2-38.9M217.1 412.3s-113.3 22-40.2 30c30.9 3.4 92.4 2.6 149.9-1.4 46.9-3.3 93.9-10.2 93.9-10.2s-16.5 5.8-28.6 12.5c-115.1 24.9-337.4 13.3-273.3-12 54.2-21.3 98.3-18.9 98.3-18.9m203.3 93.1c117-49.9 62.8-97.7 25.2-91.2-9.2 1.5-13.4 2.9-13.4 2.9s3.4-4.4 9.9-6.3c74.6-21.5 132.1 63.5-24 97.1-.1.1 1.6-1.3 2.3-2.5"/><path class="st1" d="M349.8 131s64.9 53.2-61.5 134.9c-101.2 65.6-23 102.9 0 145.6-59.1-43.7-102.5-82.1-73.4-117.9 42.8-52.7 161-78.2 134.9-162.6"/><path class="st0" d="M228.5 640.4c112.2 5.9 284.7-3.3 288.7-46.8 0 0-7.9 16.5-92.8 29.6-95.8 14.7-214.1 13.1-284.1 3.6.1.1 14.4 9.7 88.2 13.6"/></svg>

<?xml version="1.0" encoding="utf-8"?>
<!-- Generator: Adobe Illustrator 19.0.0, SVG Export Plug-In . SVG Version: 6.00 Build 0)  -->
<svg version="1.1" id="Layer_1" xmlns="http://www.w3.org/2000/svg" xmlns:xlink="http://www.w3.org/1999/xlink" x="0px" y="0px"
	 viewBox="-5 97 600 600" style="enable-background:new -5 97 600 600;" xml:space="preserve">
<style type="text/css">
	.st0{fill:#086DB5;}
	.st1{fill:#E11F21;}
</style>
<image style="display:none;overflow:visible;enable-background:new    ;" width="115" height="115" xlink:href="color_ml.png"  transform="matrix(5.1217 0 0 5.1217 1 102)">
</image>
<path class="st0" d="M205.6,526.2c0,0-23.9,11.3,17,15.2c49.4,4.7,74.6,4,129.1-4.5c0,0,14.3,7.3,34.3,13.8
	C263.9,593.6,109.7,548.2,205.6,526.2"/>
<path class="st0" d="M190.7,470.3c0,0-26.7,16.3,14.1,19.7c52.8,4.4,94.4,4.8,166.5-6.6c0,0,9.9,8.3,25.7,12.8
	C249.5,531.6,85.1,499.1,190.7,470.3"/>
<path class="st1" d="M316.4,375.4c30.1,28.4-7.9,53.9-7.9,53.9s76.3-32.4,41.3-72.7C317,318.8,292,300,427.9,235.4
	C427.9,235.4,214.5,279.1,316.4,375.4"/>
<path class="st0" d="M477.8,567.7c0,0,17.6,11.8-19.5,21.1c-70.4,17.5-293.2,22.7-355.1,0.7c-22.2-8,19.5-19,32.6-21.2
	c13.6-2.5,21.5-1.9,21.5-1.9c-24.7-14.3-160,28.1-68.7,40.2C337.5,639.4,542.4,591.5,477.8,567.7"/>
<path class="st0" d="M217.1,412.3c0,0-113.3,22-40.2,30c30.9,3.4,92.4,2.6,149.9-1.4c46.9-3.3,93.9-10.2,93.9-10.2
	s-16.5,5.8-28.6,12.5C277,468.1,54.7,456.5,118.8,431.2C173,409.9,217.1,412.3,217.1,412.3"/>
<path class="st0" d="M420.4,505.4c117-49.9,62.8-97.7,25.2-91.2c-9.2,1.5-13.4,2.9-13.4,2.9s3.4-4.4,9.9-6.3
	c74.6-21.5,132.1,63.5-24,97.1C418,508,419.7,506.6,420.4,505.4"/>
<path class="st1" d="M349.8,131c0,0,64.9,53.2-61.5,134.9c-101.2,65.6-23,102.9,0,145.6c-59.1-43.7-102.5-82.1-73.4-117.9
	C257.7,240.9,375.9,215.4,349.8,131"/>
<path class="st0" d="M228.5,640.4c112.2,5.9,284.7-3.3,288.7-46.8c0,0-7.9,16.5-92.8,29.6c-95.8,14.7-214.1,13.1-284.1,3.6
	C140.4,626.9,154.7,636.5,228.5,640.4"/>
</svg>
